X: 20465
T: John Joe Moroney's Favourite
R: reel
M: 4/4
K: Dmajor
DE|:F2AF FEDE|FAGB Adcd|B2dB BAFD|FEED E2DE|
F2AF FEDE|FAGB Adcd|BcdB BAFD|1 EDCE D2DE:|2 EDCE D2de||
|:f2af fedB|AFGA Fdcd|BcdB BAde|fdaf e2de|
f2af fedB|AFGA Fdcd|BcdB BAFD|1 EDCE D2de:|2 EDCE D2DE||

